src/assets/icons/fantasy.svg

<svg xmlns="http://www.w3.org/2000/svg" height="48" width="48"><path d="m38.7 17.35-2.55-5.75-5.95-2.65 5.95-2.6L38.7.85l2.45 5.5 5.95 2.6-5.95 2.65Zm0 29.75-2.55-5.55-5.95-2.6 5.95-2.6 2.55-5.8 2.45 5.8 5.95 2.6-5.95 2.6Zm-21.8-7.4-5.05-10.8-11-4.95 11-4.95L16.9 8.25 22 19l10.9 4.95L22 28.9Z"/></svg>

<?xml version="1.0" encoding="UTF-8" standalone="no"?>
<svg
   height="48"
   width="48"
   version="1.1"
   id="svg17"
   sodipodi:docname="fantasy.svg"
   inkscape:version="1.2.1 (9c6d41e410, 2022-07-14)"
   xmlns:inkscape="http://www.inkscape.org/namespaces/inkscape"
   xmlns:sodipodi="http://sodipodi.sourceforge.net/DTD/sodipodi-0.dtd"
   xmlns="http://www.w3.org/2000/svg"
   xmlns:svg="http://www.w3.org/2000/svg">
  <defs
     id="defs21" />
  <sodipodi:namedview
     id="namedview19"
     pagecolor="#505050"
     bordercolor="#eeeeee"
     borderopacity="1"
     inkscape:showpageshadow="0"
     inkscape:pageopacity="0"
     inkscape:pagecheckerboard="0"
     inkscape:deskcolor="#505050"
     showgrid="false"
     inkscape:zoom="4.9166667"
     inkscape:cx="24"
     inkscape:cy="24.101695"
     inkscape:window-width="1500"
     inkscape:window-height="930"
     inkscape:window-x="-6"
     inkscape:window-y="-6"
     inkscape:window-maximized="1"
     inkscape:current-layer="svg17" />
  <path
     id="path15"
     d="M 38.7,17.35 36.15,11.6 30.2,8.95 l 5.95,-2.6 2.55,-5.5 2.45,5.5 5.95,2.6 -5.95,2.65 z m 0,29.75 -2.55,-5.55 -5.95,-2.6 5.95,-2.6 2.55,-5.8 2.45,5.8 5.95,2.6 -5.95,2.6 z M 16.9,39.7 11.85,28.9 0.85,23.95 11.85,19 16.9,8.25 22,19 32.9,23.95 22,28.9 Z" />
</svg>
